X:1
T:In The Old Town Hall
T:In The Old Town Hall
T:Pease/Nelson/Johnson
C:Pease/Nelson/Johnson
%%score [ 1 2 3 4 ]
L:1/8
Q:1/4=110
M:3/4
K:G
V:1 treble-8 nm="Tenor"
V:2 treble-8 nm="Lead"
V:3 bass nm="Baritone"
V:4 bass nm="Bass"
V:1
 B2 A2 |: d6 | c6 | B6- | B2 c2 B2 | e6 | d6 | c6- | c4 z2 | !>!c2 z2 c2 | c4 A2 | e2 d2 ^c2 | d6 | %13
w: In The|1.Old|Town|Hall,|_ In The|Old|Town|Hall,|_|That's the|place where|ev- 'ry one|went,|
w: |2.Old|Town|Hall,|_ In The|Old|Town|Hall,|_|Ev- 'ry|year the|Church had a|fair,|
 ^c2 c2 c2 | ^c2 c2 c2 | d2 =c2 B2 | c2 B2 A2 | d6 | c6 | B6- | B4 z2 | B2 c2 d2 | =f2 f2 f2 | %23
w: When we were|kids man- y|good times were|spent, In The|Old|Town|Hall,|_|Those hap- py|days I re-|
w: They'd sell you|chan- ces on|ev- 'ry thing|there, In The|Old|Town|Hall,|_|Gee, how the|Rubes used to|
 (c4 d2 | c4) !>!c2 | !>!c2 z2 c2 | c2 d2 e2 | c2 c2 c2 | e4 !>!e2 | !>!d2 z2 B2 | B2 c2 d2 | %31
w: call; _|_ That's|where they|held all the|danc- es and|fights, The|old Maid's|club would meet|
w: fall; _|_ Once|I went|home with my|pock- et- book|flat, For|I bought|tick- ets for|
 =f2 e2 f2 | d4 d2 | c2 e2 e2 | e2 d2 c2 | d2 B2 B2 | B2 B2 c2 | ^c6 | =c6 |1 B6- | B z B2 A2 :|2 %41
w: there Tues- day|nights, Next|day you'd see|Bur- lesque with|girls dressed in|tights, In The|Old|Town|Hall.|_ In The|
w: this and for|that, And|all that I|won was a|brown der- by|hat, In the|Old|Town|||
 B6- || B2 z4 |] %43
w: Hall.|_|
w: ||
V:2
 d2 c2 |: B6 | A6 | G6- | G2 e2 d2 | c6 | B6 | A6- | A4 z2 | !>!F2 z2 d2 | d4 c2 | c2 B2 ^A2 | B6 | %13
w: In The|1.Old|Town|Hall,|_ In The|Old|Town|Hall,|_|That's the|place where|ev- 'ry one|went,|
w: |2.Old|Town|Hall,|_ In The|Old|Town|Hall,|_|Ev- 'ry|year the|Church had a|fair,|
 A2 B2 A2 | E2 F2 G2 | B2 A2 ^G2 | A2 d2 c2 | B6 | A6 | G6- | G4 z2 | G2 A2 B2 | B2 c2 d2 | e6- | %24
w: When we were|kids man- y|good times were|spent, In The|Old|Town|Hall,|_|Those hap- py|days I re-|call;|
w: They'd sell you|chan- ces on|ev- 'ry thing|there, In The|Old|Town|Hall,|_|Gee, how the|Rubes used to|fall;|
 e4 !>!^d2 | !>!e2 z2 A2 | A2 B2 c2 | e2 ^d2 e2 | c4 !>!^c2 | !>!d2 z2 G2 | G2 A2 B2 | d2 ^c2 d2 | %32
w: _ That's|where they|held all the|danc- es and|fights, The|old Maid's|club would meet|there Tues- day|
w: _ Once|I went|home with my|pock- et- book|flat, For|I bought|tick- ets for|this and for|
 B4 B2 | A2 c2 c2 | c2 B2 A2 | B2 d2 d2 | d2 e2 c2 | B6 | A6 |1 G6- | G z d2 c2 :|2 G6- || G2 z4 |] %43
w: nights, Next|day you'd see|Bur- lesque with|girls dressed in|tights, In The|Old|Town|Hall.|_ In The|Hall.|_|
w: that, And|all that I|won was a|brown der- by|hat, In the|Old|Town|||||
V:3
 D,2 F,2 |: G,6 | F,6 | (D,4 E,2 | D,2) E,2 ^G,2 | A,6 | ^G,6 | (E,4 F,2 | E,4) z2 | %9
w: In The|1.Old|Town|Hall, _|_ In The|Old|Town|Hall, _|_|
w: |2.Old|Town|Hall, _|_ In The|Old|Town|Hall, _|_|
 !>!D,2 z2 F,2 | F,4 F,2 | G,2 G,2 G,2 | ^G,6 | =G,2 G,2 G,2 | G,2 A,2 E,2 | F,2 F,2 ^E,2 | %16
w: That's the|place where|ev- 'ry one|went,|When we were|kids man- y|good times were|
w: Ev- 'ry|year the|Church had a|fair,|They'd sell you|chan- ces on|ev- 'ry thing|
 F,2 D,2 F,2 | G,6 | F,6 | (D,4 E,2 | D,4) z2 | D,2 D,2 G,2 | G,2 A,2 B,2 | (G,4 ^G,2 | %24
w: spent, In The|Old|Town|Hall, _|_|Those hap- py|days I re-|call; _|
w: there, In The|Old|Town|Hall, _|_|Gee, how the|Rubes used to|fall; _|
 A,4) !>!A,2 | !>!A,2 z2 E,2 | E,2 E,2 E,2 | A,2 A,2 A,2 | A,4 !>!^A,2 | !>!B,2 z2 G,2 | %30
w: _ That's|where they|held all the|danc- es and|fights, The|old Maid's|
w: _ Once|I went|home with my|pock- et- book|flat, For|I bought|
 G,2 G,2 G,2 | ^G,2 G,2 G,2 | ^G,4 G,2 | E,2 A,2 =G,2 | F,2 F,2 F,2 | G,2 B,2 A,2 | ^G,2 G,2 A,2 | %37
w: club would meet|there Tues- day|nights, Next|day you'd see|Bur- lesque with|girls dressed in|tights, In The|
w: tick- ets for|this and for|that, And|all that I|won was a|brown der- by|hat, In the|
 =G,6 | F,6 |1 D,6- | D, z F,2 F,2 :|2 D,6- || D,2 z4 |] %43
w: Old|Town|Hall.|_ In The|Hall.|_|
w: Old|Town|||||
V:4
 D,2 D,2 |: G,,6 | D,6 | G,,6- | G,,2 E,2 E,2 | A,,6 | E,6 | A,,6- | A,,4 z2 | !>!A,,2 z2 D,2 | %10
w: In The|1.Old|Town|Hall,|_ In The|Old|Town|Hall,|_|That's the|
w: |2.Old|Town|Hall,|_ In The|Old|Town|Hall,|_|Ev- 'ry|
 D,4 D,2 | D,2 D,2 =F,2 | E,6 | E,2 E,2 E,2 | A,,2 A,,2 A,,2 | D,2 D,2 D,2 | D,2 D,2 D,2 | G,,6 | %18
w: place where|ev- 'ry one|went,|When we were|kids man- y|good times were|spent, In The|Old|
w: year the|Church had a|fair,|They'd sell you|chan- ces on|ev- 'ry thing|there, In The|Old|
 D,6 | G,,6- | G,,4 z2 | G,,2 G,,2 G,,2 | D,2 D,2 G,2 | (C,4 B,,2 | A,,4) !>!=F,2 | %25
w: Town|Hall,|_|Those hap- py|days I re-|call; _|_ That's|
w: Town|Hall,|_|Gee, how the|Rubes used to|fall; _|_ Once|
 !>!E,2 z2 A,,2 | A,,2 A,,2 A,,2 | A,,2 =F,2 E,2 | A,,4 !>!^F,2 | !>!G,2 z2 D,2 | E,2 E,2 D,2 | %31
w: where they|held all the|danc- es and|fights, The|old Maid's|club would meet|
w: I went|home with my|pock- et- book|flat, For|I bought|tick- ets for|
 B,,2 B,,2 B,,2 | E,4 E,2 | A,,2 A,,2 A,,2 | D,2 D,2 D,2 | G,,2 G,2 =F,2 | E,2 E,2 A,,2 | A,,6 | %38
w: there Tues- day|nights, Next|day you'd see|Bur- lesque with|girls dressed in|tights, In The|Old|
w: this and for|that, And|all that I|won was a|brown der- by|hat, In the|Old|
 D,6 |1 G,,6- | G,, z D,2 D,2 :|2 G,,6- || G,,2 z4 |] %43
w: Town|Hall.|_ In The|Hall.|_|
w: Town|||||

